X:1
T:Benson, CMD
T:Anonymous, ca. 1900
T:Benson, CMD
T:Public Domain
C:Anonymous, ca. 1900
Z:Public Domain
%%score ( 1 2 ) 3
L:1/8
M:6/8
K:F
V:1 treble 
V:2 treble 
V:3 bass 
V:1
 ([Cc][B,G])[A,F] (GD)[G,E] | [A,F]2 [CA] [A,C]2 C | (DE)[B,F] (EF)[B,EG] | %3
 ([A,C]2 [B,D] [A,CF]2) C | ([CA][B,G])[A,F] (GD)[G,E] | [A,F]2 [CA] [G,C]3 | %6
 (DE)[B,F] (EF)[B,EG] | ([A,C]2 [B,D] [A,CF]2) z | ([EG][FA])[EG] ([Ac][G=B])[FA] | %9
 [EG]2 [DF] [CE]2 [EG] | ([EG][FA])[EG] [Ac][G=B][FA] | ([CF]2 [CF] [CEG]3) | ecA [_E=B]2 [EA] | %13
 [DG]2 [DF] [CE]2 [B,E] | (F>E)[A,D] [G,CD]2 [F,=B,E] | [E,G,C]4 z2 |] %16
V:2
 x3 B,2 x | x5 C | B,2 B,2 x2 | F3- C x2 | x3 B,2 x | x6 | B,2 B,2 x2 | F3- x3 | x6 | x6 | x6 | %11
 A3 x3 | _E3 x3 | x6 | A,2 x4 | x6 |] %16
V:3
 F,,2 F,, F,,2 F,, | F,,2 F,, F,,2 F,, | B,,2 G,, C,2 C,, | (F,,2 B,, F,,2) z | F,,2 F,, F,,2 F,, | %5
 F,,2 F,, F,,2 F,, | B,,2 G,, C,2 C,, | (F,,2 B,, F,,2) z | C,2 C, C,2 C, | C,2 C, C,2 C, | %10
 C,2 C, C,2 C, | (C,2 C, C,2) C, | [C,G,]3 [C,^F,]2 [C,F,] | [=B,,G,]2 [B,,G,] [C,G,]2 [C,G,] | %14
 [F,,F,]3 G,,2 G,, | [C,,G,,]4 z2 |] %16

